source/Icon/pic.svg

<svg width="32" height="32" viewBox="0 0 48 48" fill="none" xmlns="http://www.w3.org/2000/svg">
    <path fill-rule="evenodd" clip-rule="evenodd" d="M5 10C5 8.89543 5.89543 8 7 8L41 8C42.1046 8 43 8.89543 43 10V38C43 39.1046 42.1046 40 41 40H7C5.89543 40 5 39.1046 5 38V10Z" stroke="#000000" stroke-width="4" stroke-linecap="round" stroke-linejoin="round"/>
    <path fill-rule="evenodd" clip-rule="evenodd" d="M14.5 18C15.3284 18 16 17.3284 16 16.5C16 15.6716 15.3284 15 14.5 15C13.6716 15 13 15.6716 13 16.5C13 17.3284 13.6716 18 14.5 18Z" stroke="#000000" stroke-width="4" stroke-linecap="round" stroke-linejoin="round"/>
    <path d="M15 24L20 28L26 21L43 34V38C43 39.1046 42.1046 40 41 40H7C5.89543 40 5 39.1046 5 38V34L15 24Z" fill="#2F88FF" stroke="#000000" stroke-width="4" stroke-linejoin="round"/>
</svg>

<svg width="48" height="48" viewBox="0 0 48 48" fill="none" xmlns="http://www.w3.org/2000/svg"><path stroke-linejoin="round" stroke-linecap="round" stroke-width="4" stroke="#333" d="M5 10a2 2 0 0 1 2-2h34a2 2 0 0 1 2 2v28a2 2 0 0 1-2 2H7a2 2 0 0 1-2-2V10Z" clip-rule="evenodd"/><path stroke-linejoin="round" stroke-linecap="round" stroke-width="4" stroke="#333" d="M14.5 18a1.5 1.5 0 1 0 0-3 1.5 1.5 0 0 0 0 3Z" clip-rule="evenodd"/><path stroke-linejoin="round" stroke-width="4" stroke="#333" d="m15 24 5 4 6-7 17 13v4a2 2 0 0 1-2 2H7a2 2 0 0 1-2-2v-4l10-10Z"/></svg>
